X: 26546
T: Michigan IO
R: slip jig
M: 9/8
K: Gminor
|:"Bb" ded"F" cdc"Bb" BcB|GBG"F" FGA Bdc|"Bb" [FB]4 Bc ded|"F" c2 B"Gm" g f3 dc|
BcB B2 A G2 A|B2 c"Bb" ded c2 B|"F" c2 d B2 G"Bb" F2 G|B2 B [FB]4 Bc:|
|:"Gm" dba g2 a gfa|g2 e"Eb" gfe c2 e|"Gm" d4- dd"Eb" ede|c2 e"Bb" dcd B2 d|
"F" cdc A2 c"Bb" BFD|B,DF ded c2 B|"F" c2 d B2 G"Bb" F2 G|B2 B [FB]6:|

